bridge_ui/src/icons/wormhole_icon_gradient.svg

<svg version="1.1" id="Layer_1" xmlns="http://www.w3.org/2000/svg" x="0" y="0" viewBox="0 0 1200 1200" style="enable-background:new 0 0 1200 1200" xml:space="preserve"><style>.st1{fill:#fff}</style><linearGradient id="SVGID_1_" gradientUnits="userSpaceOnUse" x1="898.635" y1="313.87" x2="115.958" y2="1069.016" gradientTransform="matrix(1 0 0 -1 0 1202)"><stop offset=".044" style="stop-color:#17153f"/><stop offset=".895" style="stop-color:#e72850"/></linearGradient><path d="M600 0c331.4 0 600 268.6 600 600s-268.6 600-600 600S0 931.4 0 600 268.6 0 600 0z" style="fill:url(#SVGID_1_)"/><g id="Group_2688_00000054987805972546127230000001790373977789335727_" transform="translate(889 -859.95)"><path id="Path_1700_00000088816419864858296970000017358602858408324795_" class="st1" d="M-289 1849.2c-215 0-389.3-174.3-389.3-389.3S-504 1070.6-289 1070.6s389.3 174.3 389.3 389.3C100 1674.8-74.1 1849-289 1849.2m0-761.2c-205.4 0-372 166.5-372 372s166.5 372 372 372 372-166.5 372-372c-.2-205.4-166.6-371.8-372-372"/><path id="Path_1701_00000043446539099758984290000018341695511642478224_" class="st1" d="M-257.1 1811.2c-193.2 0-349.8-156.6-349.8-349.8 0-193.2 156.6-349.8 349.8-349.8s349.8 156.6 349.8 349.8c-.3 193.1-156.8 349.5-349.8 349.8m0-684.6c-184.9 0-334.8 149.9-334.8 334.8s149.9 334.8 334.8 334.8 334.8-149.9 334.8-334.8c-.2-184.8-150-334.6-334.8-334.8"/><path id="Path_1702_00000113335188362704744920000010469125356209529766_" class="st1" d="M-225.3 1773.1c-171.3 0-310.3-138.9-310.3-310.2s138.9-310.3 310.2-310.3S85 1291.5 85 1462.8c-.2 171.3-139 310.1-310.3 310.3m0-607.9c-164.3 0-297.6 133.2-297.6 297.6s133.2 297.6 297.6 297.6 297.6-133.2 297.6-297.6c-.2-164.2-133.3-297.4-297.6-297.6"/><path id="Path_1703_00000016781340587998914980000004383849681671759015_" class="st1" d="M-193.4 1735c-149.5 0-270.8-121.2-270.8-270.7s121.2-270.8 270.7-270.8 270.8 121.2 270.8 270.7c-.1 149.5-121.2 270.6-270.7 270.8m0-531.1c-143.8 0-260.4 116.6-260.4 260.4 0 143.8 116.6 260.4 260.4 260.4 143.8 0 260.4-116.6 260.4-260.4-.2-143.8-116.7-260.3-260.4-260.4"/><path id="Path_1704_00000018930625917587001090000003434842714786806953_" class="st1" d="M-161.5 1696.9c-127.7 0-231.2-103.5-231.2-231.2 0-127.7 103.5-231.2 231.2-231.2S69.7 1338 69.7 1465.7c-.2 127.6-103.6 231.1-231.2 231.2m0-454.4c-123.3 0-223.2 99.9-223.2 223.2 0 123.3 99.9 223.2 223.2 223.2S61.7 1589 61.7 1465.7c-.2-123.2-100-223-223.2-223.2"/><path id="Path_1705_00000027567382612946487660000013739044656758152873_" class="st1" d="M-129.7 1658.8c-105.9 0-191.7-85.8-191.7-191.7 0-105.9 85.8-191.7 191.7-191.7S62 1361.2 62 1467.1c-.1 105.9-85.8 191.6-191.7 191.7m0-377.6c-102.7 0-186 83.3-186 186s83.3 186 186 186 186-83.3 186-186c-.1-102.7-83.3-185.9-186-186"/></g></svg>

<?xml version="1.0" encoding="utf-8"?>
<!-- Generator: Adobe Illustrator 26.0.2, SVG Export Plug-In . SVG Version: 6.00 Build 0)  -->
<svg version="1.1" id="Layer_1" xmlns="http://www.w3.org/2000/svg" xmlns:xlink="http://www.w3.org/1999/xlink" x="0px" y="0px"
	 viewBox="0 0 1200 1200" style="enable-background:new 0 0 1200 1200;" xml:space="preserve">
<style type="text/css">
	.st0{fill:url(#SVGID_1_);}
	.st1{fill:#FFFFFF;}
</style>
<linearGradient id="SVGID_1_" gradientUnits="userSpaceOnUse" x1="898.6346" y1="313.87" x2="115.9579" y2="1069.0157" gradientTransform="matrix(1 0 0 -1 0 1202)">
	<stop  offset="4.370000e-02" style="stop-color:#17153F"/>
	<stop  offset="0.8948" style="stop-color:#E72850"/>
</linearGradient>
<path class="st0" d="M600,0L600,0c331.4,0,600,268.6,600,600v0c0,331.4-268.6,600-600,600h0C268.6,1200,0,931.4,0,600v0
	C0,268.6,268.6,0,600,0z"/>
<g id="Group_2688_00000054987805972546127230000001790373977789335727_" transform="translate(889 -859.95)">
	<path id="Path_1700_00000088816419864858296970000017358602858408324795_" class="st1" d="M-289,1849.2
		c-215,0-389.3-174.3-389.3-389.3c0-215,174.3-389.3,389.3-389.3s389.3,174.3,389.3,389.3l0,0C100,1674.8-74.1,1849-289,1849.2
		 M-289,1088c-205.4,0-372,166.5-372,372s166.5,372,372,372s372-166.5,372-372C82.8,1254.6-83.6,1088.2-289,1088"/>
	<path id="Path_1701_00000043446539099758984290000018341695511642478224_" class="st1" d="M-257.1,1811.2
		c-193.2,0-349.8-156.6-349.8-349.8c0-193.2,156.6-349.8,349.8-349.8s349.8,156.6,349.8,349.8C92.4,1654.5-64.1,1810.9-257.1,1811.2
		 M-257.1,1126.6c-184.9,0-334.8,149.9-334.8,334.8s149.9,334.8,334.8,334.8s334.8-149.9,334.8-334.8l0,0
		C77.5,1276.6-72.3,1126.8-257.1,1126.6"/>
	<path id="Path_1702_00000113335188362704744920000010469125356209529766_" class="st1" d="M-225.3,1773.1
		c-171.3,0-310.3-138.9-310.3-310.2s138.9-310.3,310.2-310.3S85,1291.5,85,1462.8c0,0,0,0,0,0C84.8,1634.1-54,1772.9-225.3,1773.1
		 M-225.3,1165.2c-164.3,0-297.6,133.2-297.6,297.6s133.2,297.6,297.6,297.6s297.6-133.2,297.6-297.6
		C72.1,1298.6-61,1165.4-225.3,1165.2"/>
	<path id="Path_1703_00000016781340587998914980000004383849681671759015_" class="st1" d="M-193.4,1735
		c-149.5,0-270.8-121.2-270.8-270.7c0-149.5,121.2-270.8,270.7-270.8s270.8,121.2,270.8,270.7v0C77.2,1613.7-43.9,1734.8-193.4,1735
		 M-193.4,1203.9c-143.8,0-260.4,116.6-260.4,260.4c0,143.8,116.6,260.4,260.4,260.4c143.8,0,260.4-116.6,260.4-260.4l0,0
		C66.8,1320.5-49.7,1204-193.4,1203.9"/>
	<path id="Path_1704_00000018930625917587001090000003434842714786806953_" class="st1" d="M-161.5,1696.9
		c-127.7,0-231.2-103.5-231.2-231.2c0-127.7,103.5-231.2,231.2-231.2S69.7,1338,69.7,1465.7l0,0
		C69.5,1593.3-33.9,1696.8-161.5,1696.9 M-161.5,1242.5c-123.3,0-223.2,99.9-223.2,223.2c0,123.3,99.9,223.2,223.2,223.2
		s223.2-99.9,223.2-223.2l0,0C61.5,1342.5-38.3,1242.7-161.5,1242.5"/>
	<path id="Path_1705_00000027567382612946487660000013739044656758152873_" class="st1" d="M-129.7,1658.8
		c-105.9,0-191.7-85.8-191.7-191.7c0-105.9,85.8-191.7,191.7-191.7s191.7,85.8,191.7,191.7C61.9,1573-23.8,1658.7-129.7,1658.8
		 M-129.7,1281.2c-102.7,0-186,83.3-186,186s83.3,186,186,186s186-83.3,186-186l0,0C56.2,1364.5-27,1281.3-129.7,1281.2"/>
</g>
</svg>
